fs/scan_object_24_regular.svg

<svg viewBox="0 0 24 24" fill="none" xmlns="http://www.w3.org/2000/svg" height="1em" width="1em">
  <path d="M5.25 3.5C4.2835 3.5 3.5 4.2835 3.5 5.25V8.25C3.5 8.66421 3.16421 9 2.75 9C2.33579 9 2 8.66421 2 8.25V5.25C2 3.45507 3.45507 2 5.25 2H8.25C8.66421 2 9 2.33579 9 2.75C9 3.16421 8.66421 3.5 8.25 3.5H5.25ZM18.75 3.5C19.7165 3.5 20.5 4.2835 20.5 5.25V8.25C20.5 8.66421 20.8358 9 21.25 9C21.6642 9 22 8.66421 22 8.25V5.25C22 3.45507 20.5449 2 18.75 2H15.75C15.3358 2 15 2.33579 15 2.75C15 3.16421 15.3358 3.5 15.75 3.5H18.75ZM3.5 18.75C3.5 19.7165 4.2835 20.5 5.25 20.5H8.25C8.66421 20.5 9 20.8358 9 21.25C9 21.6642 8.66421 22 8.25 22H5.25C3.45507 22 2 20.5449 2 18.75V15.75C2 15.3358 2.33579 15 2.75 15C3.16421 15 3.5 15.3358 3.5 15.75V18.75ZM18.75 20.5C19.7165 20.5 20.5 19.7165 20.5 18.75V15.75C20.5 15.3358 20.8358 15 21.25 15C21.6642 15 22 15.3358 22 15.75V18.75C22 20.5449 20.5449 22 18.75 22H15.75C15.3358 22 15 21.6642 15 21.25C15 20.8358 15.3358 20.5 15.75 20.5H18.75ZM13.8197 8.22691C12.9211 6.99142 11.0789 6.99142 10.1804 8.22691L7.12601 12.4266C6.04442 13.9138 7.10677 16 8.94566 16H15.0544C16.8932 16 17.9556 13.9138 16.874 12.4266L13.8197 8.22691ZM11.3935 9.10916C11.693 8.69734 12.307 8.69734 12.6066 9.10916L15.6609 13.3089C16.0214 13.8046 15.6673 14.5 15.0544 14.5H8.94566C8.3327 14.5 7.97858 13.8046 8.33911 13.3089L11.3935 9.10916Z" fill="#212121"/>
</svg>

<svg viewBox="0 0 24 24" fill="none" xmlns="http://www.w3.org/2000/svg" height="1em" width="1em">
  <path d="M5.25 3.5A1.75 1.75 0 0 0 3.5 5.25v3a.75.75 0 0 1-1.5 0v-3A3.25 3.25 0 0 1 5.25 2h3a.75.75 0 0 1 0 1.5h-3Zm13.5 0c.966 0 1.75.784 1.75 1.75v3a.75.75 0 0 0 1.5 0v-3A3.25 3.25 0 0 0 18.75 2h-3a.75.75 0 0 0 0 1.5h3ZM3.5 18.75c0 .966.784 1.75 1.75 1.75h3a.75.75 0 0 1 0 1.5h-3A3.25 3.25 0 0 1 2 18.75v-3a.75.75 0 0 1 1.5 0v3Zm15.25 1.75a1.75 1.75 0 0 0 1.75-1.75v-3a.75.75 0 0 1 1.5 0v3A3.25 3.25 0 0 1 18.75 22h-3a.75.75 0 0 1 0-1.5h3ZM13.82 8.227a2.25 2.25 0 0 0-3.64 0l-3.054 4.2C6.044 13.914 7.106 16 8.946 16h6.108c1.84 0 2.902-2.086 1.82-3.573l-3.054-4.2Zm-2.427.882a.75.75 0 0 1 1.214 0l3.054 4.2a.75.75 0 0 1-.607 1.191H8.946a.75.75 0 0 1-.607-1.191l3.054-4.2Z" fill="#212121"/>
</svg>
